X: 13574
T: Flying Crowbar, The
R: jig
M: 6/8
K: Dmajor
|:fdd dcd|Bgg Aff|gfe fed|cBA a2g|
fdd dcd|Bgg Aff|gfe fed|cBc d2e:|
|:fdB BAB|fdB Bcd|cAF FEF|f2f edc|
fdB BAB|fdB Bcd|cBA f2f|edc B2e:|

